X:1
T:Aus: Choral-Melodien sämtlicher Lieder des Gesangbuchs, bearbeitet von Aug. E. Grell, Seite 2, Berlin, bei Ludwig Oehmigke, 1833.
T:Nun sich der Tag geendet hat
T:Satz: Eduard Grell
T:Text: 1. Adam Krieger 2-3. Johann Friedrich Herzog
T:Nun sich der Tag geendet hat
T:CPDL - Creative Commons Attribution Non Commercial 3.0
C:Eduard Grell
Z:Adam Krieger, Johann Friedrich Herzog
Z:CPDL - Creative Commons Attribution Non Commercial 3.0
%%score [ ( 1 2 ) ( 3 4 ) ]
L:1/8
M:4/4
K:Eb
V:1 treble-8 nm="Tenor"
V:2 treble-8 
V:3 bass nm="Bass"
V:4 bass 
V:1
 g2 | c2 d2 e2 e2 | f2 f2 !fermata!g2 g2 | f2 f2 g2 e2 | !fermata!d2 g2 e2 d2 | e2 c2 =B2 c2 | %6
w: 1.~Nun|sich der Tag ge-|en- det hat, und|kei- ne Sonn' mehr|scheint, schläft al- les,|was sich ab- ge-|
w: 2.~Nur|du, mein Gott, hast|kei- ne Rast, du|schläfst noch schlum- merst|nicht; die Fins- ter-|nis ist dir ver-|
w: 3.~Ge-|den- ke, Herr, doch|auch an mich in|die- ser fins- tern|Nacht und schen- ke|mir ge- nä- dig-|
 !fermata!d2 g2 f2 e2 | d2 d2 !fermata!c2 |] %8
w: matt' und was zu-|vor ge- weint.|
w: haßt, weil du bist|selbst das Licht.|
w: lich den Schirm von|dei- ner Wacht!|
V:2
 G2 | c2 A2 B2 c2 | c2 d2 e2 e2 | c2 d2 d2 c2 | =B2 B2 c2 B2 | c2 G2 G2 G2 | =A2 c2 c2 c2 | %7
 c2 =B2 c2 |] %8
V:3
 G,2 | A,2 A,2 G,2 G,2 | A,2 B,2 B,2 B,2 | =A,2 B,2 G,2 G,2 | G,2 G,2 G,2 G,2 | G,2 E,2 D,2 G,2 | %6
 ^F,2 G,2 A,2 G,2 | A,2 G,2 G,2 |] %8
V:4
 G,2 | A,2 F,2 E,2 C,2 | F,2 B,,2 !fermata!E,2 E,2 | E,2 D,2 B,,2 C,2 | %4
 !fermata!G,,2 G,,2 C,2 G,,2 | C,2 C,2 G,,2 E,2 | !fermata!D,2 E,2 =F,2 C,2 | %7
 F,,2 G,,2 !fermata!C,2 |] %8

